!!!OTL: 1788. Das ist die Mode so. / [Wander- und Abschiedslied der Handwerksburschen.]
!!!ARE: Europa, Mitteleuropa, Deutschland, Uckermark, Prenzlau
!!!SCT: E1788
!!!TXL: @@NDS
!!!YEM: Copyright 1995, estate of Helmut Schaffrath.
**kern	**text
*ICvox	*
*M4/4	*
*met(c)	*
*k[]	*
*C:	*
!LO:TX:a:t=Etas bewegt.	!
!LO:TX:a:t=Aus der Umgegend von Prenʒlau in der Uckermark 1838.	!
{4e	Die
=1	=1
4g	Vög-
4e	-lein
4cc	in
4a	dem
=2	=2
(4.g	Wal-
8e)	.
4g}	-de
{4cc	die
=3	=3
4a	paa-
4a	-ren
(<8aL	ſich
8bJ	.
8cc)	.
8a	gar
=4	=4
(4.g	bal-
8e)	.
4g}	-de,
{4cc	ſie
=5	=5
4.c	dre-
8d	-hen
4e	ſich
4f	wohl
=6	=6
4g	nach
4g	dem
4g}	Wind,
{4cc	wo
=7	=7
8.a	ſich,
16f	wo
8f	ſich,
8f	wo
4f	ſich,
4dd	wo
=8	=8
8.b/	ſich,
16g	wo
8g	ſich,
8g	wo
4g}	ſich,
{4ff	wo
=9	=9
(4ee	ſich
8ff)	.
8dd	ein
4cc	Lieb-
4dd	-chen
=10	=10
4ee	findt,
4ee	ja
8eeL	findt,
8dd	.
8ccJ}	.
{8b	wo
=11	=11
8.a	ſich,
16f	wo
8f	ſich,
8f	wo
4f	ſich,
4dd	wo
=12	=12
8.b/	ſich,
16g	wo
8g	ſich,
8g	wo
4g}	ſich,
{4ff	wo
=13	=13
(4ee	ſich
8ff)	.
8dd	ein
4cc	Lieb-
4dd	-chen
=14	=14
2cc	ſidt.
4r}	.
==	==
!!!AGN: Scherz - Lied; Handwerksburschen -, Abschieds -, Wander - Lied
!!!ONB: ESAC (Essen Associative Code) Database: ERK3
!!!AMT: simple quadruple
!!!AIN: vox
!!!EED: Helmut Schaffrath
!!!EEV: 1.0
!!!GTL: Vermischter Inhalt.
!!!URL-scan: https://rosdok.uni-rostock.de/mcrviewer/recordIdentifier/rosdok_ppn745177999/iview2/phys_0569.iview2?x=-4.404412318551749&y=137.60398658225313&scale=0.6456904138606623&rotation=0&layout=singlePageLayout
!!!ENC: Anna Maria Matuszewska
!!!EEV: 2025/08/01
*-	*-
